X:138
T:Cook in the Kitchen, The
R:jig
H:Tommy Peoples playes a quarter tone between F and F# in bars 2 and 6
D:Tommy Peoples: Traditional Irish Music Played on the Fiddle
Z:id:hn-jig-138
M:6/8
K:G
DGG GAG|=FDE F2D|DGG G^FG|AdB cAG|
DGG GAG|=FDE F2d|cAG ^FGA|1 AG^F G2E:|2 AG^F G2A||
~B3 BAG|ABA AGF|~G3 GFG|Add cAG|~B3 BAG|ABA A2d|cAG FGA|1 BGG G2A:|2 BGG G2B||
d2e f2g|a2g fed|cAG FGA|BGB cAG|d2e f2g|a2g fed|cAG FGA|1 BGG G3:|2 BGG G2E||

